icon/lg/apple-app-store.svg

<?xml version="1.0" encoding="UTF-8"?>
<svg viewBox="0 0 256 256" version="1.1" xmlns="http://www.w3.org/2000/svg" xmlns:xlink="http://www.w3.org/1999/xlink" preserveAspectRatio="xMidYMid" height="1em" width="1em">
  <defs>
    <linearGradient x1="50%" y1="0%" x2="50%" y2="100%" id="linearGradient-1">
      <stop stop-color="#17C9FB" offset="0%"/>
      <stop stop-color="#1A74E8" offset="100%"/>
    </linearGradient>
  </defs>
  <g>
    <path d="M56.0638473,0 L199.936153,0 C230.899361,-6.57084692e-15 256,25.1006394 256,56.0638473 L256,199.936153 C256,230.899361 230.899361,256 199.936153,256 L56.0638473,256 C25.1006394,256 0,230.899361 0,199.936153 L0,56.0638473 C0,25.1006394 25.1006394,6.57084692e-15 56.0638473,0 Z" fill="url(#linearGradient-1)"/>
    <path d="M82.041678,185.810289 L82.0657467,185.817889 L73.3130924,200.977891 C70.1182861,206.51167 63.0418283,208.407779 57.5080489,205.212719 C51.9745229,202.018166 50.0784142,194.941709 53.2732205,189.407929 L59.7211046,178.240042 L60.3397975,177.16835 C61.4449319,175.579561 64.1720448,172.838767 69.6270308,173.353838 C69.6270308,173.353838 82.4637674,174.747037 83.3925667,181.418887 C83.3928201,181.418887 83.5194976,183.614461 82.041678,185.810289 L82.041678,185.810289 Z M206.18511,147.089287 L178.890925,147.089287 C177.032313,146.96489 176.22031,146.3011 175.901843,145.915241 L175.881574,145.880024 L146.663918,95.2738878 L146.626168,95.2992233 L144.873712,92.786702 C142.002187,88.3953002 137.442051,99.6272864 137.442051,99.6272864 C131.997452,112.142769 138.21453,126.372451 140.382488,130.673152 L180.963875,200.962183 C184.158428,206.495962 191.234886,208.392071 196.768665,205.197011 C202.302191,202.002458 204.1983,194.926001 201.003494,189.392221 L190.855613,171.815973 C190.659263,171.390337 190.316981,170.233771 192.398038,170.229211 L206.18511,170.229211 C212.574975,170.229211 217.755071,165.049115 217.755071,158.659249 C217.755071,152.269383 212.574975,147.089287 206.18511,147.089287 Z M153.171088,162.818324 C153.171088,162.818324 154.627879,170.228957 148.99073,170.228957 L143.353582,170.228957 L143.353582,170.229211 L48.0918579,170.229211 C41.701992,170.229211 36.5218962,165.049115 36.5218962,158.659249 C36.5218962,152.269383 41.701992,147.089287 48.0918579,147.089287 L74.0318604,147.089287 C78.2198182,146.846573 79.2127163,144.42906 79.2127163,144.42906 L79.2355183,144.440715 L113.095904,85.7925846 L113.08577,85.7905577 C113.703196,84.6575543 113.189139,83.5871295 113.099704,83.417635 L101.917376,64.0494072 C98.7223163,58.5156278 100.618425,51.4394233 106.152204,48.244617 C111.685984,45.0495574 118.761935,46.9456661 121.956994,52.4794455 L127.143171,61.4623995 L132.320226,52.4954068 C135.515033,46.9616274 142.591237,45.0655188 148.125016,48.2605784 C153.658796,51.455638 155.554904,58.5318425 152.359845,64.0653685 L105.242153,145.675313 C105.036176,146.172142 104.97309,146.951969 106.505888,147.089287 L134.670094,147.089287 L134.676174,147.363671 C134.676174,147.363671 150.954231,147.617026 153.171088,162.818324 Z" fill="#FFFFFF" fill-rule="nonzero"/>
  </g>
</svg>

<svg width="256" height="256" xmlns="http://www.w3.org/2000/svg" preserveAspectRatio="xMidYMid"><defs><linearGradient x1="50%" y1="0%" x2="50%" y2="100%" id="a"><stop stop-color="#17C9FB" offset="0%"/><stop stop-color="#1A74E8" offset="100%"/></linearGradient></defs><path d="M56.064 0h143.872C230.9 0 256 25.1 256 56.064v143.872C256 230.9 230.9 256 199.936 256H56.064C25.1 256 0 230.9 0 199.936V56.064C0 25.1 25.1 0 56.064 0Z" fill="url(#a)"/><path d="m82.042 185.81.024.008-8.753 15.16c-3.195 5.534-10.271 7.43-15.805 4.235-5.533-3.195-7.43-10.271-4.235-15.805l6.448-11.168.619-1.072c1.105-1.588 3.832-4.33 9.287-3.814 0 0 12.837 1.393 13.766 8.065 0 0 .126 2.195-1.351 4.391Zm124.143-38.72h-27.294c-1.859-.125-2.67-.789-2.99-1.175l-.02-.035-29.217-50.606-.038.025-1.752-2.512c-2.872-4.392-7.432 6.84-7.432 6.84-5.445 12.516.773 26.745 2.94 31.046l40.582 70.29c3.194 5.533 10.27 7.43 15.805 4.234 5.533-3.195 7.43-10.271 4.234-15.805l-10.147-17.576c-.197-.426-.539-1.582 1.542-1.587h13.787c6.39 0 11.57-5.18 11.57-11.57 0-6.39-5.18-11.57-11.57-11.57Zm-53.014 15.728s1.457 7.411-4.18 7.411H48.092c-6.39 0-11.57-5.18-11.57-11.57 0-6.39 5.18-11.57 11.57-11.57h25.94c4.188-.242 5.18-2.66 5.18-2.66l.024.012 33.86-58.648-.01-.002c.617-1.133.103-2.204.014-2.373l-11.183-19.369c-3.195-5.533-1.299-12.61 4.235-15.804 5.534-3.195 12.61-1.3 15.805 4.234l5.186 8.983 5.177-8.967c3.195-5.533 10.271-7.43 15.805-4.234 5.534 3.195 7.43 10.27 4.235 15.804l-47.118 81.61c-.206.497-.269 1.277 1.264 1.414h28.164l.006.275s16.278.253 18.495 15.454Z" fill="#FFF"/></svg>
